polaris-icons/icons/new-icons/PagePlusMajor.svg

<svg width="20" height="20" viewBox="0 0 20 20" fill="none" xmlns="http://www.w3.org/2000/svg">
<path fill-rule="evenodd" clip-rule="evenodd" d="M5.5 5.25C5.5 4.55964 6.05964 4 6.75 4H9V7.75C9 8.7165 9.7835 9.5 10.75 9.5H14.5V10.75C14.5 11.1642 14.8358 11.5 15.25 11.5C15.6642 11.5 16 11.1642 16 10.75V8.75C16 8.55109 15.921 8.36032 15.7803 8.21967L10.2803 2.71967C10.1397 2.57902 9.94891 2.5 9.75 2.5H6.75C5.23122 2.5 4 3.73122 4 5.25V14.75C4 16.2688 5.23122 17.5 6.75 17.5H11C11.4142 17.5 11.75 17.1642 11.75 16.75C11.75 16.3358 11.4142 16 11 16H6.75C6.05964 16 5.5 15.4404 5.5 14.75V5.25ZM13.4393 8L10.5 5.06066V7.75C10.5 7.88807 10.6119 8 10.75 8H13.4393Z" fill="#4A4A4A"/>
<path d="M14.5 13.25C14.5 12.8358 14.8358 12.5 15.25 12.5C15.6642 12.5 16 12.8358 16 13.25V14.5H17.25C17.6642 14.5 18 14.8358 18 15.25C18 15.6642 17.6642 16 17.25 16H16V17.25C16 17.6642 15.6642 18 15.25 18C14.8358 18 14.5 17.6642 14.5 17.25V16H13.25C12.8358 16 12.5 15.6642 12.5 15.25C12.5 14.8358 12.8358 14.5 13.25 14.5H14.5V13.25Z" fill="#4A4A4A"/>
</svg>

<svg viewBox="0 0 20 20" xmlns="http://www.w3.org/2000/svg"><path fill-rule="evenodd" d="M5.5 5.25c0-.69.56-1.25 1.25-1.25h2.25v3.75c0 .966.784 1.75 1.75 1.75h3.75v1.25a.75.75 0 0 0 1.5 0v-2a.75.75 0 0 0-.22-.53l-5.5-5.5a.75.75 0 0 0-.53-.22h-3a2.75 2.75 0 0 0-2.75 2.75v9.5a2.75 2.75 0 0 0 2.75 2.75h4.25a.75.75 0 0 0 0-1.5h-4.25c-.69 0-1.25-.56-1.25-1.25v-9.5Zm7.94 2.75-2.94-2.94v2.69c0 .138.112.25.25.25h2.69Z" fill="#5C5F62"/><path d="M14.5 13.25a.75.75 0 0 1 1.5 0v1.25h1.25a.75.75 0 0 1 0 1.5h-1.25v1.25a.75.75 0 0 1-1.5 0v-1.25h-1.25a.75.75 0 0 1 0-1.5h1.25v-1.25Z" fill="#5C5F62"/></svg>
